packages/admin/admin-icons/icons/rte-strikethrough.svg

<svg width="16" height="16" viewBox="0 0 16 16" fill="none" xmlns="http://www.w3.org/2000/svg">
<path d="M3.73333 6.51667C2.66667 4.47223 4.17778 2.07223 6.31111 1.62778C9.06667 0.738895 13.0667 1.98334 12.9778 5.36112H10.3111C10.3111 5.09445 10.2222 4.82778 10.2222 4.65001C10.0444 4.11667 9.68889 3.85001 9.15556 3.67223C8.44444 3.40556 7.28889 3.49445 6.66667 3.9389C5.33333 5.09445 6.57778 6.25001 8 6.69445H3.91111C3.82222 6.60556 3.82222 6.51667 3.73333 6.51667ZM16 9.36112V7.58334H0V9.36112H8.53333C8.71111 9.45001 8.88889 9.45001 9.06667 9.5389C9.6 9.80556 10.0444 9.98334 10.2222 10.5167C10.3111 10.8722 10.4 11.3167 10.2222 11.6722C10.0444 12.1167 9.68889 12.2945 9.24444 12.4722C7.64444 12.9167 5.68889 12.2945 5.77778 10.3389H3.11111C3.02222 12.65 4.97778 14.25 7.11111 14.5167C10.4889 15.2278 14.4889 13.0945 12.7111 9.27223L16 9.36112Z" fill="#242424"/>
</svg>

<svg width="16" height="16" fill="none" viewBox="0 0 16 16">
  <path fill="#242424" d="M3.733 6.517c-1.066-2.045.445-4.445 2.578-4.89 2.756-.888 6.756.356 6.667 3.734H10.31c0-.267-.089-.533-.089-.711-.178-.533-.533-.8-1.066-.978-.712-.267-1.867-.178-2.49.267C5.334 5.094 6.579 6.249 8 6.694H3.911c-.089-.089-.089-.177-.178-.177ZM16 9.36V7.583H0v1.778h8.533c.178.089.356.089.534.178.533.266.977.444 1.155.978.09.355.178.8 0 1.155-.178.444-.533.622-.978.8-1.6.444-3.555-.178-3.466-2.133H3.11c-.089 2.31 1.867 3.91 4 4.178 3.378.71 7.378-1.423 5.6-5.245l3.29.089Z"/>
</svg>
